miniprogram/assets/figma/grid-file-pen.svg

<svg width="24" height="24" viewBox="0 0 24 24" fill="none" xmlns="http://www.w3.org/2000/svg">
<g clip-path="url(#clip0_205_1001)">
<path fill-rule="evenodd" clip-rule="evenodd" d="M9.75 2.75125C9.66147 2.75035 9.55485 2.75005 9.42452 2.75005H5.8C4.94755 2.75005 4.35331 2.75064 3.89068 2.78844C3.43681 2.82552 3.17604 2.89465 2.97852 2.99529C2.55516 3.21101 2.21095 3.55521 1.99524 3.97858C1.8946 4.17609 1.82547 4.43686 1.78838 4.89073C1.75058 5.35337 1.75 5.9476 1.75 6.80006V17.2001C1.75 18.0525 1.75058 18.6467 1.78838 19.1094C1.82547 19.5633 1.8946 19.824 1.99524 20.0215C2.21095 20.4449 2.55516 20.7891 2.97852 21.0048C3.17604 21.1055 3.43681 21.1746 3.89068 21.2117C4.35331 21.2495 4.94755 21.2501 5.8 21.2501H10C10.4142 21.2501 10.75 21.5858 10.75 22.0001C10.75 22.4143 10.4142 22.7501 10 22.7501H5.76788C4.95505 22.7501 4.29944 22.7501 3.76853 22.7067C3.2219 22.662 2.74176 22.5677 2.29754 22.3413C1.59193 21.9818 1.01825 21.4081 0.658726 20.7025C0.432386 20.2583 0.338026 19.7782 0.293364 19.2315C0.249988 18.7006 0.249993 18.045 0.25 17.2322V6.76795C0.249993 5.95512 0.249988 5.29949 0.293364 4.76859C0.338026 4.22195 0.432386 3.74181 0.658726 3.29759C1.01825 2.59198 1.59193 2.01831 2.29754 1.65878C2.74176 1.43244 3.2219 1.33808 3.76853 1.29342C4.29944 1.25004 4.95506 1.25005 5.7679 1.25005L9.49699 1.25003C9.91561 1.24978 10.2451 1.24959 10.5635 1.32604C10.8441 1.3934 11.1124 1.50452 11.3584 1.65529C11.6377 1.82639 11.8705 2.05954 12.1664 2.35572L16.6443 6.83369C16.9405 7.12952 17.1737 7.3624 17.3448 7.64161C17.4955 7.88766 17.6067 8.15591 17.674 8.43651C17.7505 8.75492 17.7503 9.08445 17.75 9.50306L17.75 11.1559C17.75 11.5701 17.4142 11.9059 17 11.9059C16.5858 11.9059 16.25 11.5701 16.25 11.1559V9.57554C16.25 9.44521 16.2497 9.33859 16.2488 9.25006H12.5C10.9812 9.25006 9.75 8.01884 9.75 6.50006V2.75125ZM15.4393 7.75006L11.25 3.56071V6.50006C11.25 7.19042 11.8096 7.75006 12.5 7.75006H15.4393Z" fill="#9CA3AF"/>
<path fill-rule="evenodd" clip-rule="evenodd" d="M19.7348 11.6541C20.5068 11.1171 21.5313 11.1169 22.3036 11.6536C22.47 11.7692 22.6273 11.9266 22.81 12.1095L22.8906 12.1901C23.0736 12.3727 23.2312 12.53 23.3469 12.6964C23.8841 13.4685 23.8843 14.4933 23.3474 15.2656C23.2317 15.4321 23.0742 15.5894 22.8913 15.7721L16.9076 21.7569C16.8079 21.8566 16.6821 21.9262 16.5446 21.9577L13.1674 22.7311C12.9157 22.7888 12.6521 22.7129 12.4696 22.5303C12.287 22.3476 12.2113 22.084 12.269 21.8323L13.0433 18.4589C13.0748 18.3216 13.1444 18.196 13.2439 18.0964L19.2286 12.1102C19.4112 11.9273 19.5684 11.7698 19.7348 11.6541ZM21.4476 12.8853C21.1902 12.7065 20.8487 12.7065 20.5913 12.8855C20.5503 12.9141 20.4951 12.965 20.2491 13.2111L19.7705 13.6898L21.3114 15.2307L21.7902 14.7518C22.0363 14.5057 22.0872 14.4505 22.1158 14.4094C22.2948 14.152 22.2947 13.8104 22.1156 13.553C22.0871 13.512 22.0361 13.4568 21.7899 13.2108C21.5438 12.9648 21.4886 12.9139 21.4476 12.8853ZM20.2508 16.2915L18.7099 14.7506L14.4571 19.0045L13.9986 21.0019L15.9994 20.5437L20.2508 16.2915Z" fill="#9CA3AF"/>
</g>
<defs>
<clipPath id="clip0_205_1001">
<rect width="24" height="24" fill="white"/>
</clipPath>
</defs>
</svg>

<svg xmlns="http://www.w3.org/2000/svg" width="24" height="24" fill="none" viewBox="0 0 24 24"><g fill="#9ca3af" fill-rule="evenodd" clip-path="url(#a)" clip-rule="evenodd"><path d="m9.75 2.751-.325-.001H5.8c-.852 0-1.447 0-1.91.038-.453.038-.714.107-.911.207a2.25 2.25 0 0 0-.984.984c-.1.197-.17.458-.207.912-.037.462-.038 1.057-.038 1.91v10.4c0 .851 0 1.446.038 1.908.037.454.107.715.207.912.216.424.56.768.984.984.197.1.458.17.912.207.462.038 1.057.038 1.909.038H10a.75.75 0 1 1 0 1.5H5.768c-.813 0-1.469 0-2-.043-.546-.045-1.026-.14-1.47-.366a3.75 3.75 0 0 1-1.64-1.639c-.226-.444-.32-.924-.365-1.47-.043-.531-.043-1.187-.043-2V6.768c0-.813 0-1.469.043-2 .045-.546.14-1.026.366-1.47a3.75 3.75 0 0 1 1.639-1.64c.444-.226.924-.32 1.47-.365.531-.043 1.187-.043 2-.043h3.729c.419 0 .748 0 1.066.076.281.067.55.179.795.33.28.17.512.404.808.7l4.478 4.478c.297.296.53.528.7.808.151.246.263.514.33.795.076.318.076.647.076 1.066v1.653a.75.75 0 0 1-1.5 0v-1.58l-.001-.326H12.5A2.75 2.75 0 0 1 9.75 6.5zm5.69 5-4.19-4.19V6.5c0 .69.56 1.25 1.25 1.25z"/><path d="M19.735 11.654a2.25 2.25 0 0 1 2.569 0c.166.115.323.273.506.456l.08.08c.184.183.341.34.457.506a2.25 2.25 0 0 1 0 2.57c-.115.166-.273.323-.456.506l-5.983 5.985a.75.75 0 0 1-.363.2l-3.378.774a.75.75 0 0 1-.898-.899l.774-3.373a.75.75 0 0 1 .2-.363l5.986-5.986c.182-.183.34-.34.506-.456m1.713 1.231a.75.75 0 0 0-.857 0c-.04.03-.096.08-.342.326l-.479.479 1.541 1.54.48-.478c.245-.246.296-.302.325-.343a.75.75 0 0 0 0-.856c-.029-.041-.08-.096-.326-.342s-.301-.297-.342-.326m-1.197 3.406-1.541-1.54-4.253 4.254L14 21.002l2-.458z"/></g><defs><clipPath id="a"><path fill="#fff" d="M0 0h24v24H0z"/></clipPath></defs></svg>
